X: 1
T: Away to Chincoteague
C: Jim Stevenson-Mathews
D: from Andy Imbrie recording "Dance for Joy Encore!"
F: http://terrytraub.org/abc/AwayToChincoteagueJ.abc 2015-2-20
Z: trans. T. Traub 6-30-2012
N: Tune for The Abbot of Unreason 8x32J 3C
B: Milton Levy "The Tin Woodman and Other Dances" #4
M: 6/8
L: 1/8
R: Jig
K: Am
zF |\
"Am"EAB cBc | A2e efe | "G"d2c B2c | dBA G2A |\
"Am"EAB cBc | A2e efe | "Dm"d2c "E"B[e2E2] | "Am"A3-A :|
cd |\
"Am"e2c Acd | efe Aec | "G"d2c B2c | dBA Ggf |\
"Am"e2c Acd | {ef}e2c A2f | "Dm"e2d "E"Bc2 | "Am"A3-A |]
cd |\
"Am"e2c Acd | eae Aec | "G"d2c BGB | de"#"f g2a |\
"Am"e2c Acd | {ef}e2c A2f | "Dm"e2d "E"Bc2 | "Am"A3-A |]
